;FLAVOR:Marlin
;TIME:5190
;Filament used: 1.25315m
;Layer height: 0.06
;MINX:96
;MINY:96
;MINZ:0.3
;MAXX:124
;MAXY:124
;MAXZ:49.98
;Generated with Cura_SteamEngine 4.7.1
M140 S60
M105
M190 S60
M104 S215
M105
M109 S215
M82 ;absolute extrusion mode
G28 ;Home
G1 Z15.0 F6000 ;Move the platform down 15mm
;Prime the extruder
G92 E0
G1 F200 E3
G92 E0
G92 E0
G92 E0
G1 F1500 E-1
;LAYER_COUNT:829
;LAYER:0
M107
G0 F3600 X101.984 Y97.377 Z0.3
;TYPE:SKIRT
G1 F1500 E0
G1 F1800 X102.224 Y97.14 E0.01683
G1 X102.656 Y96.776 E0.04501
G1 X103.136 Y96.476 E0.07325
G1 X103.652 Y96.247 E0.10142
G1 X104.196 Y96.093 E0.12962
G1 X104.898 Y96.011 E0.16488
G1 X105.33 Y96 E0.18644
G1 X114.35 Y96 E0.63645
G1 X115.051 Y96.01 E0.67143
G1 X115.614 Y96.058 E0.69962
G1 X116.165 Y96.185 E0.72783
G1 X116.693 Y96.389 E0.75607
G1 X117.186 Y96.664 E0.78423
G1 X117.459 Y96.86 E0.801
G1 X117.89 Y97.248 E0.82993
G1 X118.659 Y98.051 E0.8854
G1 X118.84 Y98.245 E0.89864
G1 X120.769 Y100.206 E1.03587
G1 X122.673 Y102.032 E1.16749
G1 X122.808 Y102.166 E1.17698
G1 X123.18 Y102.592 E1.20519
G1 X123.488 Y103.066 E1.2334
G1 X123.727 Y103.578 E1.26159
G1 X123.891 Y104.119 E1.28979
G1 X123.988 Y104.882 E1.32816
G1 X124 Y105.33 E1.35052
G1 X124 Y114.329 E1.79948
G1 X123.99 Y115.051 E1.83551
G1 X123.942 Y115.615 E1.86375
G1 X123.815 Y116.166 E1.89196
G1 X123.612 Y116.693 E1.92013
G1 X123.337 Y117.187 E1.94834
G1 X122.994 Y117.637 E1.97657
G1 X122.758 Y117.883 E1.99358
G1 X121.941 Y118.666 E2.05003
G1 X121.759 Y118.836 E2.06246
G1 X119.811 Y120.751 E2.19874
G1 X118.023 Y122.617 E2.32767
G1 X117.778 Y122.858 E2.34482
G1 X117.346 Y123.223 E2.37304
G1 X116.867 Y123.523 E2.40123
G1 X116.35 Y123.752 E2.42944
G1 X115.806 Y123.907 E2.45766
G1 X115.102 Y123.989 E2.49302
G1 X114.67 Y124 E2.51458
G1 X105.65 Y124 E2.96459
G1 X104.947 Y123.99 E2.99967
G1 X104.384 Y123.942 E3.02786
G1 X103.833 Y123.815 E3.05607
G1 X103.305 Y123.611 E3.08431
G1 X102.812 Y123.336 E3.11247
G1 X102.362 Y122.993 E3.1407
G1 X102.118 Y122.76 E3.15753
G1 X101.31 Y121.917 E3.21579
G1 X101.149 Y121.744 E3.22758
G1 X99.231 Y119.794 E3.36404
G1 X97.377 Y118.016 E3.4922
G1 X97.14 Y117.776 E3.50902
G1 X96.776 Y117.344 E3.53721
G1 X96.476 Y116.864 E3.56545
G1 X96.247 Y116.348 E3.59361
G1 X96.093 Y115.804 E3.62182
G1 X96.011 Y115.102 E3.65708
G1 X96 Y114.67 E3.67864
G1 X96 Y105.65 E4.12865
G1 X96.01 Y104.947 E4.16372
G1 X96.058 Y104.384 E4.19191
G1 X96.185 Y103.833 E4.22013
G1 X96.389 Y103.305 E4.24836
G1 X96.664 Y102.812 E4.27653
G1 X97.007 Y102.362 E4.30476
G1 X97.242 Y102.117 E4.32169
G1 X98.059 Y101.334 E4.37815
G1 X98.241 Y101.164 E4.39058
G1 X100.206 Y99.231 E4.52809
G1 X101.984 Y97.377 E4.65625
G0 F3600 X102.272 Y97.654
G1 F1800 X102.503 Y97.427 E4.67241
G1 X102.914 Y97.083 E4.69915
G1 X103.372 Y96.804 E4.7259
G1 X103.866 Y96.596 E4.75264
G1 X104.386 Y96.464 E4.77941
G1 X104.909 Y96.41 E4.80564
G1 X105.33 Y96.4 E4.82665
G1 X114.344 Y96.4 E5.27636
G1 X115.045 Y96.41 E5.31134
G1 X115.58 Y96.458 E5.33814
G1 X116.101 Y96.584 E5.36488
G1 X116.597 Y96.787 E5.39162
G1 X117.204 Y97.168 E5.42737
G1 X117.601 Y97.525 E5.45401
G1 X118.366 Y98.323 E5.50916
G1 X118.562 Y98.533 E5.52349
G1 X120.472 Y100.475 E5.65938
G1 X122.391 Y102.316 E5.79206
G1 X122.526 Y102.45 E5.80155
G1 X122.878 Y102.855 E5.82832
G1 X123.165 Y103.308 E5.85507
G1 X123.382 Y103.798 E5.88181
G1 X123.523 Y104.316 E5.90859
G1 X123.588 Y104.894 E5.93761
G1 X123.6 Y105.33 E5.95937
G1 X123.6 Y114.324 E6.40808
G1 X123.59 Y115.046 E6.44411
G1 X123.542 Y115.58 E6.47086
G1 X123.416 Y116.101 E6.4976
G1 X123.214 Y116.598 E6.52436
G1 X122.94 Y117.059 E6.55112
G1 X122.481 Y117.595 E6.58632
G1 X121.668 Y118.374 E6.6425
G1 X121.469 Y118.56 E6.65609
G1 X119.525 Y120.472 E6.79212
G1 X117.734 Y122.34 E6.92123
G1 X117.499 Y122.572 E6.93771
G1 X117.088 Y122.916 E6.96445
G1 X116.63 Y123.195 E6.9912
G1 X116.136 Y123.403 E7.01795
G1 X115.616 Y123.536 E7.04472
G1 X115.091 Y123.59 E7.07105
G1 X114.67 Y123.6 E7.09206
G1 X105.656 Y123.6 E7.54177
G1 X104.953 Y123.59 E7.57685
G1 X104.419 Y123.542 E7.6036
G1 X103.897 Y123.416 E7.63039
G1 X103.401 Y123.213 E7.65713
G1 X102.94 Y122.939 E7.68388
G1 X102.406 Y122.483 E7.71892
G1 X101.646 Y121.691 E7.77368
G1 X101.446 Y121.474 E7.7884
G1 X99.528 Y119.525 E7.92482
G1 X97.654 Y117.728 E8.05436
G1 X97.427 Y117.497 E8.07052
G1 X97.083 Y117.086 E8.09725
G1 X96.804 Y116.628 E8.12401
G1 X96.596 Y116.134 E8.15075
G1 X96.464 Y115.614 E8.17752
G1 X96.41 Y115.091 E8.20375
G1 X96.4 Y114.67 E8.22476
G1 X96.4 Y105.656 E8.67447
G1 X96.41 Y104.953 E8.70954
G1 X96.458 Y104.419 E8.73629
G1 X96.584 Y103.897 E8.76308
G1 X96.787 Y103.401 E8.78982
G1 X97.061 Y102.94 E8.81658
G1 X97.519 Y102.405 E8.85171
G1 X98.332 Y101.626 E8.90789
G1 X98.531 Y101.44 E8.92148
G1 X100.475 Y99.528 E9.05751
G1 X102.272 Y97.654 E9.18705
G0 F3600 X102.561 Y97.93
G1 F1800 X102.781 Y97.714 E9.20243
G1 X103.171 Y97.391 E9.22769
G1 X103.606 Y97.134 E9.2529
G1 X104.076 Y96.949 E9.2781
G1 X104.57 Y96.84 E9.30334
G1 X105.24 Y96.801 E9.33682
G1 X114.339 Y96.8 E9.79077
G1 X115.04 Y96.81 E9.82575
G1 X115.543 Y96.857 E9.85095
G1 X116.033 Y96.983 E9.87619
G1 X116.496 Y97.185 E9.90139
G1 X116.968 Y97.491 E9.92946
G1 X117.312 Y97.802 E9.95259
G1 X118.074 Y98.596 E10.0075
G1 X118.285 Y98.823 E10.02296
G1 X120.176 Y100.745 E10.15748
G1 X122.07 Y102.561 E10.28839
G1 X122.244 Y102.734 E10.30063
G1 X122.574 Y103.117 E10.32585
G1 X122.839 Y103.548 E10.35109
G1 X123.033 Y104.015 E10.37632
G1 X123.151 Y104.506 E10.40152
G1 X123.198 Y105.232 E10.43781
G1 X123.2 Y105.33 E10.4427
G1 X123.2 Y114.318 E10.89112
G1 X123.19 Y115.04 E10.92714
G1 X123.143 Y115.544 E10.95239
G1 X123.017 Y116.033 E10.97759
G1 X122.816 Y116.497 E11.00281
G1 X122.544 Y116.924 E11.02807
G1 X122.205 Y117.306 E11.05355
G1 X121.396 Y118.081 E11.10945
G1 X121.18 Y118.282 E11.12417
G1 X119.238 Y120.192 E11.26006
G1 X117.445 Y122.063 E11.38935
G1 X117.22 Y122.285 E11.40512
G1 X116.831 Y122.608 E11.43034
G1 X116.396 Y122.865 E11.45555
G1 X115.926 Y123.051 E11.48077
G1 X115.432 Y123.16 E11.50601
G1 X114.76 Y123.199 E11.53959
G1 X105.661 Y123.2 E11.99354
G1 X104.958 Y123.19 E12.02862
G1 X104.455 Y123.143 E12.05382
G1 X103.965 Y123.017 E12.07906
G1 X103.502 Y122.815 E12.10426
G1 X103.075 Y122.544 E12.12949
G1 X102.695 Y122.206 E12.15487
G1 X101.897 Y121.373 E12.21242
G1 X101.725 Y121.187 E12.22506
G1 X99.824 Y119.255 E12.36028
G1 X97.93 Y117.439 E12.49119
G1 X97.714 Y117.219 E12.50657
G1 X97.391 Y116.829 E12.53184
G1 X97.134 Y116.394 E12.55704
G1 X96.949 Y115.924 E12.58224
G1 X96.84 Y115.43 E12.60748
G1 X96.801 Y114.76 E12.64096
G1 X96.8 Y105.661 E13.09491
G1 X96.81 Y104.958 E13.12999
G1 X96.857 Y104.455 E13.15519
G1 X96.983 Y103.965 E13.18044
G1 X97.185 Y103.502 E13.20564
G1 X97.456 Y103.075 E13.23087
G1 X97.795 Y102.694 E13.25631
G1 X98.604 Y101.919 E13.31221
G1 X98.82 Y101.718 E13.32693
G1 X100.745 Y99.824 E13.46166
G1 X102.561 Y97.93 E13.59256
G1 F1500 E12.59256
;MESH:ESP8266 Holder.obj
G0 F3600 X104.335 Y100.614
G0 X105.614 Y100.614
G0 X114.33 Y105.67
G0 X114.4 Y105.6
;TYPE:WALL-INNER
G1 F1500 E13.59256
G1 F1800 X119.4 Y105.6 E13.84202
G1 X119.4 Y114.4 E14.28105
G1 X114.4 Y114.4 E14.5305
G1 X114.4 Y119.4 E14.77995
G1 X105.6 Y119.4 E15.21899
G1 X105.6 Y114.4 E15.46844
G1 X100.6 Y114.4 E15.71789
G1 X100.6 Y105.6 E16.15692
G1 X105.6 Y105.6 E16.40637
G1 X105.6 Y100.6 E16.65582
G1 X114.4 Y100.6 E17.09486
G1 X114.4 Y105.6 E17.34431
G0 F3600 X114.8 Y105.2
;TYPE:WALL-OUTER
G1 F1800 X119.8 Y105.2 E17.59376
G1 X119.8 Y114.8 E18.07271
G1 X114.8 Y114.8 E18.32216
G1 X114.8 Y119.8 E18.57161
G1 X105.2 Y119.8 E19.05055
G1 X105.2 Y114.8 E19.3
G1 X100.2 Y114.8 E19.54946
G1 X100.2 Y105.2 E20.0284
G1 X105.2 Y105.2 E20.27785
G1 X105.2 Y100.2 E20.5273
G1 X114.8 Y100.2 E21.00625
G1 X114.8 Y105.2 E21.2557
G0 F3600 X115 Y105.2
G0 X115 Y105.7
G0 X114.01 Y105.99
;TYPE:SKIN
G1 F1800 X119.01 Y105.99 E21.50515
G1 X119.01 Y114.01 E21.90527
G1 X114.01 Y114.01 E22.15472
G1 X114.01 Y119.01 E22.40417
G1 X105.99 Y119.01 E22.80429
G1 X105.99 Y114.01 E23.05374
G1 X100.99 Y114.01 E23.30319
G1 X100.99 Y105.99 E23.70331
G1 X105.99 Y105.99 E23.95276
G1 X105.99 Y100.99 E24.20222
G1 X114.01 Y100.99 E24.60233
G1 X114.01 Y105.99 E24.85179
G0 F3600 X118.829 Y106.384
G1 F1800 X118.615 Y106.17 E24.86688
G0 F3600 X118.05 Y106.17
G1 F1800 X118.829 Y106.949 E24.92185
G0 F3600 X118.829 Y107.515
G1 F1800 X117.484 Y106.17 E25.01674
G0 F3600 X116.918 Y106.17
G1 F1800 X118.829 Y108.081 E25.15158
G0 F3600 X118.829 Y108.646
G1 F1800 X116.353 Y106.17 E25.32627
G0 F3600 X115.787 Y106.17
G1 F1800 X118.829 Y109.212 E25.5409
G0 F3600 X118.829 Y109.778
G1 F1800 X115.221 Y106.17 E25.79546
G0 F3600 X114.655 Y106.17
G1 F1800 X118.829 Y110.344 E26.08996
G0 F3600 X118.829 Y110.909
G1 F1800 X114.09 Y106.17 E26.42432
G0 F3600 X113.829 Y105.909
G1 F1800 X109.089 Y101.17 E26.75872
G0 F3600 X108.523 Y101.17
G1 F1800 X118.829 Y111.475 E27.48583
G0 F3600 X118.829 Y112.041
G1 F1800 X107.958 Y101.17 E28.25284
G0 F3600 X107.392 Y101.17
G1 F1800 X118.829 Y112.606 E29.05975
G0 F3600 X118.829 Y113.172
G1 F1800 X106.826 Y101.17 E29.90659
G0 F3600 X106.261 Y101.17
G1 F1800 X118.829 Y113.738 E30.79333
G0 F3600 X118.354 Y113.829
G1 F1800 X106.169 Y101.643 E31.65308
G0 F3600 X106.169 Y102.209
G1 F1800 X117.789 Y113.829 E32.47293
G0 F3600 X117.223 Y113.829
G1 F1800 X106.169 Y102.775 E33.25285
G0 F3600 X106.169 Y103.34
G1 F1800 X116.657 Y113.829 E33.99287
G0 F3600 X116.092 Y113.829
G1 F1800 X106.169 Y103.906 E34.69299
G0 F3600 X106.169 Y104.472
G1 F1800 X115.526 Y113.829 E35.35318
G0 F3600 X114.96 Y113.829
G1 F1800 X106.169 Y105.037 E35.97347
G0 F3600 X106.169 Y105.603
G1 F1800 X114.395 Y113.829 E36.55386
G0 F3600 X113.829 Y113.829
G1 F1800 X106.169 Y106.169 E37.09431
G0 F3600 X105.604 Y106.169
G1 F1800 X113.83 Y114.395 E37.6747
G0 F3600 X113.83 Y114.961
G1 F1800 X105.038 Y106.169 E38.29502
G0 F3600 X104.472 Y106.169
G1 F1800 X113.83 Y115.527 E38.95528
G0 F3600 X113.83 Y116.092
G1 F1800 X103.907 Y106.169 E39.6554
G0 F3600 X103.341 Y106.169
G1 F1800 X113.83 Y116.658 E40.39546
G0 F3600 X113.83 Y117.224
G1 F1800 X102.775 Y106.169 E41.17545
G0 F3600 X102.21 Y106.169
G1 F1800 X113.83 Y117.789 E41.9953
G0 F3600 X113.83 Y118.355
G1 F1800 X101.644 Y106.169 E42.85509
G0 F3600 X101.17 Y106.261
G1 F1800 X113.738 Y118.829 E43.74183
G0 F3600 X113.172 Y118.829
G1 F1800 X101.17 Y106.826 E44.58867
G0 F3600 X101.17 Y107.392
G1 F1800 X112.606 Y118.829 E45.39558
G0 F3600 X112.041 Y118.829
G1 F1800 X101.17 Y107.958 E46.16259
G0 F3600 X101.17 Y108.523
G1 F1800 X111.475 Y118.829 E46.88969
G0 F3600 X110.909 Y118.829
G1 F1800 X106.169 Y114.089 E47.22413
G0 F3600 X105.909 Y113.828
G1 F1800 X101.17 Y109.089 E47.55849
G0 F3600 X101.17 Y109.655
G1 F1800 X105.343 Y113.828 E47.85292
G0 F3600 X104.777 Y113.828
G1 F1800 X101.17 Y110.22 E48.10745
G0 F3600 X101.17 Y110.786
G1 F1800 X104.211 Y113.828 E48.32204
G0 F3600 X103.646 Y113.828
G1 F1800 X101.17 Y111.352 E48.49674
G0 F3600 X101.17 Y111.918
G1 F1800 X103.08 Y113.828 E48.6315
G0 F3600 X102.514 Y113.828
G1 F1800 X101.17 Y112.483 E48.72636
G0 F3600 X101.17 Y113.049
G1 F1800 X101.949 Y113.828 E48.78132
G0 F3600 X101.383 Y113.828
G1 F1800 X101.17 Y113.615 E48.79635
G0 F3600 X105.628 Y114.372
G0 X106.169 Y114.655
G1 F1800 X110.344 Y118.829 E49.09088
G0 F3600 X109.778 Y118.829
G1 F1800 X106.169 Y115.22 E49.34552
G0 F3600 X106.169 Y115.786
G1 F1800 X109.212 Y118.829 E49.56022
G0 F3600 X108.646 Y118.829
G1 F1800 X106.169 Y116.352 E49.73498
G0 F3600 X106.169 Y116.917
G1 F1800 X108.081 Y118.829 E49.86988
G0 F3600 X107.515 Y118.829
G1 F1800 X106.169 Y117.483 E49.96485
G0 F3600 X106.169 Y118.049
G1 F1800 X106.949 Y118.829 E50.01989
G0 F3600 X106.384 Y118.829
G1 F1800 X106.169 Y118.615 E50.03502
G0 F3600 X113.829 Y105.344
G1 F1800 X109.655 Y101.17 E50.32952
G0 F3600 X110.22 Y101.17
G1 F1800 X113.829 Y104.778 E50.58412
G0 F3600 X113.829 Y104.212
G1 F1800 X110.786 Y101.17 E50.79878
G0 F3600 X111.352 Y101.17
G1 F1800 X113.829 Y103.647 E50.97355
G0 F3600 X113.829 Y103.081
G1 F1800 X111.918 Y101.17 E51.10838
G0 F3600 X112.483 Y101.17
G1 F1800 X113.829 Y102.515 E51.20331
G0 F3600 X113.829 Y101.949
G1 F1800 X113.049 Y101.17 E51.25831
G0 F3600 X113.615 Y101.17
G1 F1800 X113.829 Y101.384 E51.27341
;MESH:NONMESH
G0 F600 X113.829 Y101.384 Z0.36
G0 F3600 X114.33 Y105.67
G0 X114.4 Y105.6
;TIME_ELAPSED:40.428773
;LAYER:1
M106 S255
;TYPE:WALL-INNER
;MESH:ESP8266 Holder.obj
G1 F2700 X119.4 Y105.6 E51.3233
G1 X119.4 Y114.4 E51.4111
G1 X114.4 Y114.4 E51.46099
G1 X114.4 Y119.4 E51.51089
G1 X105.6 Y119.4 E51.59869
G1 X105.6 Y114.4 E51.64858
G1 X100.6 Y114.4 E51.69847
G1 X100.6 Y105.6 E51.78628
G1 X105.6 Y105.6 E51.83617
G1 X105.6 Y100.6 E51.88606
G1 X114.4 Y100.6 E51.97387
G1 X114.4 Y105.6 E52.02376
G0 F5400 X114.8 Y105.2
;TYPE:WALL-OUTER
G1 F1800 X119.8 Y105.2 E52.07365
G1 X119.8 Y114.8 E52.16944
G1 X114.8 Y114.8 E52.21933
G1 X114.8 Y119.8 E52.26922
G1 X105.2 Y119.8 E52.36501
G1 X105.2 Y114.8 E52.4149
G1 X100.2 Y114.8 E52.46479
G1 X100.2 Y105.2 E52.56058
G1 X105.2 Y105.2 E52.61047
G1 X105.2 Y100.2 E52.66036
G1 X114.8 Y100.2 E52.75614
G1 X114.8 Y105.2 E52.80603
G0 F5400 X115 Y105.2
G0 X115 Y105.7
G0 X114.01 Y105.99
;TYPE:SKIN
G1 F1350 X119.01 Y105.99 E52.85593
G1 X119.01 Y114.01 E52.93595
G1 X114.01 Y114.01 E52.98584
G1 X114.01 Y119.01 E53.03573
G1 X105.99 Y119.01 E53.11575
G1 X105.99 Y114.01 E53.16564
G1 X100.99 Y114.01 E53.21553
G1 X100.99 Y105.99 E53.29556
G1 X105.99 Y105.99 E53.34545
G1 X105.99 Y100.99 E53.39534
G1 X114.01 Y100.99 E53.47536
G1 X114.01 Y105.99 E53.52525
G0 F5400 X118.829 Y113.667
G1 F1350 X118.666 Y113.83 E53.52755
G0 F5400 X118.1 Y113.83
G1 F1350 X118.829 Y113.101 E53.53784
G0 F5400 X118.829 Y112.536
G1 F1350 X117.535 Y113.83 E53.5561
G0 F5400 X116.969 Y113.83
G1 F1350 X118.829 Y111.97 E53.58235
G0 F5400 X118.829 Y111.404
G1 F1350 X116.403 Y113.83 E53.61658
G0 F5400 X115.838 Y113.83
G1 F1350 X118.829 Y110.838 E53.65879
G0 F5400 X118.829 Y110.273
G1 F1350 X115.272 Y113.83 E53.70899
G0 F5400 X114.706 Y113.83
G1 F1350 X118.829 Y109.707 E53.76717
G0 F5400 X118.829 Y109.141
G1 F1350 X114.141 Y113.83 E53.83333
G0 F5400 X113.829 Y114.141
G1 F1350 X109.141 Y118.829 E53.89948
G0 F5400 X108.576 Y118.829
G1 F1350 X118.829 Y108.576 E54.04416
G0 F5400 X118.829 Y108.01
G1 F1350 X108.01 Y118.829 E54.19683
G0 F5400 X107.444 Y118.829
G1 F1350 X118.829 Y107.444 E54.35748
G0 F5400 X118.829 Y106.879
G1 F1350 X106.879 Y118.829 E54.52611
G0 F5400 X106.313 Y118.829
G1 F1350 X118.829 Y106.313 E54.70272
G0 F5400 X118.407 Y106.169
G1 F1350 X106.17 Y118.406 E54.8754
G0 F5400 X106.17 Y117.84
G1 F1350 X117.841 Y106.169 E55.04009
G0 F5400 X117.275 Y106.169
G1 F1350 X106.17 Y117.275 E55.1968
G0 F5400 X106.17 Y116.709
G1 F1350 X116.71 Y106.169 E55.34553
G0 F5400 X116.144 Y106.169
G1 F1350 X106.17 Y116.143 E55.48628
G0 F5400 X106.17 Y115.578
G1 F1350 X115.578 Y106.169 E55.61904
G0 F5400 X115.013 Y106.169
G1 F1350 X106.17 Y115.012 E55.74382
G0 F5400 X106.17 Y114.446
G1 F1350 X114.447 Y106.169 E55.86062
G0 F5400 X113.881 Y106.169
G1 F1350 X106.17 Y113.88 E55.96943
G0 F5400 X105.656 Y113.829
G1 F1350 X113.828 Y105.657 E56.08475
G0 F5400 X113.828 Y105.091
G1 F1350 X105.09 Y113.829 E56.20805
G0 F5400 X104.525 Y113.829
G1 F1350 X113.828 Y104.525 E56.33933
G0 F5400 X113.828 Y103.96
G1 F1350 X103.959 Y113.829 E56.4786
G0 F5400 X103.393 Y113.829
G1 F1350 X113.828 Y103.394 E56.62584
G0 F5400 X113.828 Y102.828
G1 F1350 X102.828 Y113.829 E56.78107
G0 F5400 X102.262 Y113.829
G1 F1350 X113.828 Y102.263 E56.94428
G0 F5400 X113.828 Y101.697
G1 F1350 X101.696 Y113.829 E57.11548
G0 F5400 X101.17 Y113.79
G1 F1350 X113.79 Y101.17 E57.29356
G0 F5400 X113.224 Y101.17
G1 F1350 X101.17 Y113.224 E57.46365
G0 F5400 X101.17 Y112.659
G1 F1350 X112.659 Y101.17 E57.62578
G0 F5400 X112.093 Y101.17
G1 F1350 X101.17 Y112.093 E57.77991
G0 F5400 X101.17 Y111.527
G1 F1350 X111.527 Y101.17 E57.92606
G0 F5400 X110.962 Y101.17
G1 F1350 X106.169 Y105.962 E57.99369
G0 F5400 X105.962 Y106.169
G1 F1350 X101.17 Y110.962 E58.06132
G0 F5400 X101.17 Y110.396
G1 F1350 X105.397 Y106.169 E58.12096
G0 F5400 X104.831 Y106.169
G1 F1350 X101.17 Y109.83 E58.17262
